X:1
T: Miss Rose of Tirlogie
C:
R:Reel
Q: 232
K:A
M:4/4
L:1/8
|:E|CA, CE A2 EA|FA EC DB, B,E|CA, CE FG AB|cf ed cA AE|
CA, CE A2 EA|FA EC DB, B,E|CA, CE FG AB|cf ed cA Ae|
c1/2B1/2A eA cA eA|GE BE dE BE|c1/2B1/2A eA cA eA|GE dB cA Ae|
c1/2B1/2A eA cA eA|GE BE dE BE|ce fg ae cA|Fd cB cA A:|
